src/assets/default-user-avatar.svg

<svg width="210" height="210" viewBox="0 0 210 210" fill="none" xmlns="http://www.w3.org/2000/svg">
<rect width="210" height="210" fill="url(#paint0_linear_1768_1907)"/>
<path d="M120.199 78.7408C120.199 79.5814 120.141 80.422 120.037 81.253C120.084 80.9187 120.132 80.5748 120.17 80.2405C119.941 81.9025 119.503 83.5168 118.864 85.0642C118.988 84.7586 119.121 84.4529 119.245 84.1472C118.606 85.6565 117.786 87.0702 116.785 88.3692L117.386 87.5955C116.394 88.8755 115.241 90.0313 113.963 91.0247L114.735 90.4229C113.439 91.4163 112.028 92.2474 110.521 92.8873C110.826 92.7632 111.132 92.6294 111.437 92.5053C109.892 93.1452 108.281 93.5846 106.622 93.8139C106.955 93.7661 107.299 93.7184 107.632 93.6802C105.964 93.8999 104.286 93.8999 102.617 93.6802C102.951 93.7279 103.294 93.7757 103.628 93.8139C101.969 93.5846 100.358 93.1452 98.8131 92.5053C99.1182 92.6294 99.4233 92.7632 99.7284 92.8873C98.222 92.2474 96.8109 91.4259 95.5143 90.4229L96.2865 91.0247C95.0089 90.0313 93.8553 88.8755 92.8637 87.5955L93.4644 88.3692C92.4728 87.0702 91.6433 85.6565 91.0045 84.1472C91.1285 84.4529 91.2619 84.7586 91.3859 85.0642C90.7471 83.5168 90.3085 81.9025 90.0797 80.2405C90.1274 80.5748 90.175 80.9187 90.2132 81.253C89.9939 79.5814 89.9939 77.9002 90.2132 76.2286C90.1655 76.5629 90.1178 76.9068 90.0797 77.2411C90.3085 75.5791 90.7471 73.9648 91.3859 72.4174C91.2619 72.723 91.1285 73.0287 91.0045 73.3344C91.6433 71.8251 92.4633 70.4114 93.4644 69.1124L92.8637 69.8861C93.8553 68.6061 95.0089 67.4503 96.2865 66.4569L95.5143 67.0587C96.8109 66.0653 98.222 65.2342 99.7284 64.5943C99.4233 64.7184 99.1182 64.8522 98.8131 64.9763C100.358 64.3364 101.969 63.897 103.628 63.6677C103.294 63.7155 102.951 63.7632 102.617 63.8014C104.286 63.5817 105.964 63.5817 107.632 63.8014C107.299 63.7537 106.955 63.7059 106.622 63.6677C108.281 63.897 109.892 64.3364 111.437 64.9763C111.132 64.8522 110.826 64.7184 110.521 64.5943C112.028 65.2342 113.439 66.0557 114.735 67.0587L113.963 66.4569C115.241 67.4503 116.394 68.6061 117.386 69.8861L116.785 69.1124C117.777 70.4114 118.606 71.8251 119.245 73.3344C119.121 73.0287 118.988 72.723 118.864 72.4174C119.503 73.9648 119.941 75.5791 120.17 77.2411C120.122 76.9068 120.075 76.5629 120.037 76.2286C120.141 77.0597 120.189 77.9002 120.199 78.7408C120.208 80.7372 121.943 82.6571 124.012 82.5616C126.072 82.4661 127.836 80.8805 127.826 78.7408C127.807 74.1654 126.434 69.4849 123.745 65.7596C123.021 64.7566 122.249 63.7728 121.39 62.8845C120.523 61.9866 119.569 61.2128 118.578 60.4582C116.776 59.0827 114.764 58.0702 112.628 57.287C104.019 54.1252 93.636 56.9431 87.8105 64.0498C87.0096 65.0241 86.2469 66.0366 85.5985 67.1255C84.9502 68.2049 84.4449 69.3512 83.9777 70.5165C83.1006 72.6753 82.6524 74.9678 82.4713 77.2889C82.1185 81.8357 83.3008 86.583 85.6653 90.4802C87.944 94.2437 91.3859 97.4723 95.4094 99.2968C96.5916 99.8317 97.8025 100.328 99.061 100.682C100.31 101.026 101.578 101.217 102.865 101.37C105.211 101.647 107.604 101.456 109.921 100.987C118.721 99.1917 126.091 91.5978 127.454 82.6858C127.655 81.3867 127.807 80.0876 127.807 78.7695C127.817 76.7731 126.043 74.8531 123.993 74.9487C121.934 75.0155 120.199 76.6012 120.199 78.7408ZM132.851 138.47H83.93C81.7657 138.47 79.6014 138.489 77.4371 138.47C77.1988 138.47 76.9604 138.45 76.7316 138.422C77.0653 138.47 77.4085 138.517 77.7422 138.556C77.3609 138.498 76.9986 138.393 76.6458 138.25C76.9509 138.374 77.256 138.508 77.5611 138.632C77.1797 138.47 76.8269 138.259 76.4932 138.002L77.2655 138.603C76.9795 138.365 76.7125 138.107 76.4837 137.82L77.0844 138.594C76.8269 138.259 76.6267 137.906 76.4551 137.524C76.5791 137.83 76.7125 138.135 76.8365 138.441C76.6935 138.088 76.5981 137.715 76.5314 137.342C76.5791 137.677 76.6267 138.021 76.6649 138.355C76.5123 137.199 76.6172 135.977 76.6172 134.811V130.723C76.6172 129.701 76.6744 128.688 76.8079 127.676C76.7602 128.01 76.7125 128.354 76.6744 128.688C76.9414 126.73 77.4562 124.81 78.2285 122.986C78.1046 123.291 77.9711 123.597 77.8471 123.903C78.5908 122.164 79.5442 120.531 80.6979 119.031L80.0972 119.805C81.2509 118.324 82.5762 116.987 84.0635 115.831L83.2912 116.433C84.7881 115.277 86.4185 114.322 88.1538 113.577C87.8487 113.701 87.5436 113.835 87.2385 113.959C89.0595 113.195 90.9664 112.67 92.9305 112.402C92.5968 112.45 92.2535 112.498 91.9198 112.536C93.3309 112.354 94.7324 112.345 96.1531 112.345H113.601C115.174 112.345 116.738 112.335 118.311 112.536C117.977 112.488 117.634 112.44 117.3 112.402C119.255 112.67 121.171 113.185 122.992 113.959C122.687 113.835 122.382 113.701 122.077 113.577C123.812 114.322 125.443 115.277 126.939 116.433L126.167 115.831C127.645 116.987 128.98 118.315 130.133 119.805L129.533 119.031C130.686 120.531 131.64 122.164 132.384 123.903C132.26 123.597 132.126 123.291 132.002 122.986C132.765 124.81 133.289 126.721 133.556 128.688C133.509 128.354 133.461 128.01 133.423 127.676C133.604 129.118 133.613 130.551 133.613 132.003V136.731C133.613 137.276 133.633 137.82 133.566 138.355C133.613 138.021 133.661 137.677 133.699 137.342C133.642 137.725 133.537 138.088 133.394 138.441C133.518 138.135 133.652 137.83 133.776 137.524C133.613 137.906 133.404 138.259 133.146 138.594L133.747 137.82C133.509 138.107 133.251 138.374 132.965 138.603L133.737 138.002C133.404 138.259 133.051 138.46 132.67 138.632C132.975 138.508 133.28 138.374 133.585 138.25C133.232 138.393 132.86 138.489 132.488 138.556C132.822 138.508 133.165 138.46 133.499 138.422C133.289 138.45 133.07 138.46 132.851 138.47C131.869 138.479 130.858 138.89 130.153 139.587C129.495 140.246 128.989 141.335 129.037 142.29C129.132 144.335 130.715 146.14 132.851 146.111C136.56 146.054 139.82 143.628 140.907 140.065C141.336 138.651 141.241 137.132 141.241 135.68C141.241 132.356 141.346 129.061 140.774 125.765C139.935 120.942 137.513 116.404 134.195 112.842C130.877 109.279 126.415 106.661 121.696 105.496C118.988 104.827 116.261 104.722 113.496 104.722H96.5821C93.7504 104.722 90.9378 104.856 88.1824 105.592C83.501 106.833 79.0961 109.479 75.8449 113.071C72.5651 116.691 70.191 121.238 69.4188 126.09C68.9039 129.347 69.0088 132.614 69.0088 135.9C69.0088 137.409 68.923 138.985 69.4664 140.428C70.172 142.281 71.297 143.742 72.9465 144.841C74.2336 145.691 75.864 146.102 77.3895 146.121C78.1332 146.13 78.8768 146.121 79.6205 146.121H132.86C134.853 146.121 136.769 144.363 136.674 142.3C136.579 140.218 134.996 138.47 132.851 138.47Z" fill="white"/>
<defs>
<linearGradient id="paint0_linear_1768_1907" x1="105" y1="0" x2="105" y2="210" gradientUnits="userSpaceOnUse">
<stop stop-color="#024EC9"/>
<stop offset="1" stop-color="#0047B6"/>
</linearGradient>
</defs>
</svg>

<svg width="210" height="210" fill="none" xmlns="http://www.w3.org/2000/svg"><path fill="url(#paint0_linear_1768_1907)" d="M0 0h210v210H0z"/><path d="M120.199 78.74c0 .841-.058 1.682-.162 2.513.047-.334.095-.678.133-1.013a19.635 19.635 0 01-1.306 4.824c.124-.305.257-.611.381-.917a19.09 19.09 0 01-2.46 4.222l.601-.773a19.403 19.403 0 01-3.423 3.429l.772-.602a19.374 19.374 0 01-4.214 2.464c.305-.124.611-.258.916-.382a19.555 19.555 0 01-4.815 1.309c.333-.048.677-.096 1.01-.134-1.668.22-3.346.22-5.015 0 .334.048.677.096 1.011.134a19.553 19.553 0 01-4.815-1.309c.305.124.61.258.915.382a19.022 19.022 0 01-4.214-2.464l.773.602a19.402 19.402 0 01-3.423-3.43l.6.774a19.455 19.455 0 01-2.46-4.222c.124.306.258.612.382.917a19.635 19.635 0 01-1.306-4.823c.047.334.095.678.133 1.012a19.268 19.268 0 010-5.024 36.53 36.53 0 00-.133 1.012 19.635 19.635 0 011.306-4.824c-.124.306-.257.612-.382.917a19.077 19.077 0 012.46-4.222l-.6.774a19.402 19.402 0 013.422-3.43l-.772.603a19.403 19.403 0 014.214-2.465c-.305.124-.61.258-.915.382a19.553 19.553 0 014.815-1.308c-.334.047-.677.095-1.011.133 1.669-.22 3.347-.22 5.015 0a36.74 36.74 0 00-1.01-.133c1.659.229 3.27.668 4.815 1.308-.305-.124-.611-.258-.916-.382a18.994 18.994 0 014.214 2.465l-.772-.602a19.403 19.403 0 013.423 3.43l-.601-.775a19.448 19.448 0 012.46 4.222c-.124-.305-.257-.611-.381-.917a19.635 19.635 0 011.306 4.824 35.062 35.062 0 01-.133-1.012c.104.83.152 1.671.162 2.512.009 1.996 1.744 3.916 3.813 3.82 2.06-.095 3.824-1.68 3.814-3.82-.019-4.576-1.392-9.256-4.081-12.981-.724-1.003-1.496-1.987-2.355-2.876-.867-.897-1.821-1.671-2.812-2.426-1.802-1.375-3.814-2.388-5.95-3.171-8.609-3.162-18.992-.344-24.817 6.763-.801.974-1.564 1.987-2.213 3.076-.648 1.079-1.153 2.225-1.62 3.39-.877 2.16-1.326 4.452-1.507 6.773-.353 4.547.83 9.294 3.194 13.191 2.279 3.764 5.72 6.992 9.744 8.817 1.183.535 2.393 1.031 3.652 1.385 1.249.344 2.517.535 3.804.688 2.346.277 4.739.086 7.056-.383 8.8-1.795 16.17-9.39 17.533-18.301.201-1.3.353-2.598.353-3.917.01-1.996-1.764-3.916-3.814-3.82-2.059.067-3.794 1.652-3.794 3.792zm12.652 59.73H83.93c-2.164 0-4.329.019-6.493 0-.238 0-.477-.02-.705-.048.333.048.677.095 1.01.134a4.84 4.84 0 01-1.096-.306c.305.124.61.258.915.382a4.851 4.851 0 01-1.068-.63l.773.601a5.448 5.448 0 01-.782-.783l.6.774a5.266 5.266 0 01-.629-1.07c.124.306.258.611.382.917a5.513 5.513 0 01-.306-1.099c.048.335.096.679.134 1.013-.153-1.156-.048-2.378-.048-3.544v-4.088c0-1.022.057-2.035.19-3.047-.047.334-.094.678-.133 1.012a22.37 22.37 0 011.554-5.702c-.123.305-.257.611-.38.917a22.47 22.47 0 012.85-4.872l-.6.774a22.651 22.651 0 013.966-3.974l-.773.602a22.4 22.4 0 014.863-2.856c-.305.124-.61.258-.915.382a22.584 22.584 0 015.691-1.557c-.333.048-.677.096-1.01.134 1.41-.182 2.812-.191 4.233-.191h17.448c1.573 0 3.137-.01 4.71.191a34.974 34.974 0 00-1.011-.134c1.955.268 3.871.783 5.692 1.557-.305-.124-.61-.258-.915-.382 1.735.745 3.366 1.7 4.862 2.856l-.772-.602a22.636 22.636 0 013.966 3.974l-.6-.774a22.51 22.51 0 012.851 4.872c-.124-.306-.258-.612-.382-.917a22.653 22.653 0 011.554 5.702 38.92 38.92 0 01-.133-1.012c.181 1.442.19 2.875.19 4.327v4.728c0 .545.02 1.089-.047 1.624.047-.334.095-.678.133-1.013a4.788 4.788 0 01-.305 1.099c.124-.306.258-.611.382-.917a4.881 4.881 0 01-.63 1.07l.601-.774a5.46 5.46 0 01-.782.783l.772-.601a5.262 5.262 0 01-1.067.63c.305-.124.61-.258.915-.382a5.536 5.536 0 01-1.097.306c.334-.048.677-.096 1.011-.134-.21.028-.429.038-.648.048a3.972 3.972 0 00-2.698 1.117c-.658.659-1.164 1.748-1.116 2.703.095 2.045 1.678 3.85 3.814 3.821a8.545 8.545 0 008.056-6.046c.429-1.414.334-2.933.334-4.385 0-3.324.105-6.619-.467-9.915-.839-4.823-3.261-9.361-6.579-12.923-3.318-3.563-7.78-6.181-12.499-7.346-2.708-.669-5.435-.774-8.2-.774H96.582c-2.832 0-5.644.134-8.4.87-4.681 1.241-9.086 3.887-12.337 7.479-3.28 3.62-5.654 8.167-6.426 13.019-.515 3.257-.41 6.524-.41 9.81 0 1.509-.086 3.085.457 4.528.706 1.853 1.831 3.314 3.48 4.413 1.288.85 2.918 1.261 4.444 1.28.743.009 1.487 0 2.23 0h53.24c1.993 0 3.909-1.758 3.814-3.821-.095-2.082-1.678-3.83-3.823-3.83z" fill="#fff"/><defs><linearGradient id="paint0_linear_1768_1907" x1="105" y1="0" x2="105" y2="210" gradientUnits="userSpaceOnUse"><stop stop-color="#024EC9"/><stop offset="1" stop-color="#0047B6"/></linearGradient></defs></svg>
